icons-rebrand/svg/secure-call-lock-bold.svg

<svg xmlns="http://www.w3.org/2000/svg" width="32" height="32" viewBox="0 0 32 32" fill="none"><path d="M27.0006 4.5V5.5C27.5308 5.50069 28.0391 5.71162 28.4141 6.08655C28.789 6.46147 28.9999 6.96978 29.0006 7.5V11.5C28.9999 12.0302 28.789 12.5385 28.4141 12.9135C28.0391 13.2884 27.5308 13.4993 27.0006 13.5H21.0006C20.4704 13.4993 19.9621 13.2884 19.5872 12.9135C19.2122 12.5385 19.0013 12.0302 19.0006 11.5V7.5C19.0013 6.96978 19.2122 6.46147 19.5872 6.08655C19.9621 5.71162 20.4704 5.50069 21.0006 5.5V4.5C21.0006 3.70435 21.3167 2.94129 21.8793 2.37868C22.4419 1.81607 23.205 1.5 24.0006 1.5C24.7963 1.5 25.5593 1.81607 26.1219 2.37868C26.6845 2.94129 27.0006 3.70435 27.0006 4.5ZM23.2935 3.79289C23.106 3.98043 23.0006 4.23478 23.0006 4.5V5.5H25.0006V4.5C25.0006 4.23478 24.8953 3.98043 24.7077 3.79289C24.5202 3.60536 24.2658 3.5 24.0006 3.5C23.7354 3.5 23.481 3.60536 23.2935 3.79289ZM21.0006 7.5V11.5H27.0026L27.0006 7.5H21.0006Z M24.2115 19.5155C23.8847 19.1893 23.4968 18.9307 23.07 18.7544C22.6432 18.5781 22.1859 18.4877 21.7242 18.4882C21.2624 18.4888 20.8053 18.5803 20.3789 18.7576C19.9526 18.9349 19.5653 19.1944 19.2393 19.5214C19.2393 19.5214 18.0825 20.7003 17.5676 21.2198C15.7858 21.1462 14.097 20.4048 12.8369 19.143C11.5768 17.8812 10.8376 16.1914 10.7663 14.4095C11.2861 13.8939 12.4625 12.7356 12.4683 12.7297C13.1271 12.0699 13.4972 11.1756 13.4972 10.2432C13.4972 9.31086 13.1271 8.41658 12.4683 7.75679L9.71401 4.99879C9.04293 4.35737 8.15037 3.99941 7.22205 3.99941C6.29374 3.99941 5.40117 4.35737 4.73009 4.99879L3.25769 6.4732C1.24987 8.48272 0.762311 15.5033 8.61876 23.3702C13.6183 28.3774 18.2759 29.9995 21.5198 29.9995C22.9563 30.0998 24.3772 29.6493 25.4934 28.7393L26.9658 27.265C27.6271 26.603 27.9985 25.7055 27.9985 24.7697C27.9985 23.834 27.6271 22.9365 26.9658 22.2745L24.2115 19.5155ZM25.551 25.8483L24.0786 27.2855C22.7996 28.5632 16.9432 28.8352 10.0335 21.9163C3.12287 14.9965 3.39448 9.16952 4.67246 7.88984L6.14487 6.44743C6.28618 6.30571 6.45408 6.19326 6.63892 6.11654C6.82377 6.03982 7.02194 6.00033 7.22207 6.00033C7.42221 6.00033 7.62038 6.03982 7.80522 6.11654C7.99007 6.19326 8.15796 6.30571 8.29927 6.44743L11.0536 9.17343C11.336 9.45632 11.4951 9.83939 11.4962 10.2391C11.4973 10.6388 11.3403 11.0228 11.0594 11.3072C11.0594 11.3072 9.5538 12.7894 9.18843 13.1553C7.88505 14.4643 9.65643 18.7915 11.4239 20.5614C12.5854 21.6923 14.0158 22.5088 15.5803 22.9338C16.4909 23.1833 18.1226 23.4974 18.8212 22.7988C19.1846 22.4349 20.66 20.9322 20.66 20.9322C20.9436 20.6493 21.3278 20.4904 21.7284 20.4904C22.1289 20.4904 22.5132 20.6493 22.7968 20.9322L25.5511 23.6911C25.837 23.9773 25.9976 24.3652 25.9976 24.7697C25.9976 25.1742 25.8369 25.5622 25.551 25.8483Z"/></svg>

<svg width="32" height="32" fill="none" xmlns="http://www.w3.org/2000/svg"><path fill-rule="evenodd" clip-rule="evenodd" d="M27.0006 4.5v1a2.0029 2.0029 0 012 2v4a2.003 2.003 0 01-.5865 1.4135 2.003 2.003 0 01-1.4135.5865h-6a2.0026 2.0026 0 01-2-2v-4a2.0024 2.0024 0 012-2v-1a3 3 0 016 0zm-3.7071-.7071a1.0002 1.0002 0 00-.2929.7071v1h2v-1a.9997.9997 0 00-1-1 1 1 0 00-.7071.2929zM21.0006 7.5v4h6.002l-.002-4h-6z" fill="#0F0F0F"/><path d="M24.2115 19.5155a3.5158 3.5158 0 00-2.4873-1.0273 3.5156 3.5156 0 00-2.4849 1.0332s-1.1568 1.1789-1.6717 1.6984a7.0998 7.0998 0 01-6.8013-6.8103c.5198-.5156 1.6962-1.6739 1.702-1.6798a3.5192 3.5192 0 000-4.973L9.714 4.9988a3.6066 3.6066 0 00-4.984 0L3.2578 6.4733c-2.0078 2.0095-2.4954 9.0301 5.361 16.897 4.9996 5.0072 9.6572 6.6293 12.9011 6.6293a5.6641 5.6641 0 003.9736-1.2602l1.4724-1.4743a3.5307 3.5307 0 000-4.9905l-2.7543-2.759zm1.3395 6.3328l-1.4724 1.4372c-1.279 1.2777-7.1354 1.5497-14.0451-5.3692-6.9106-6.9198-6.639-12.7468-5.361-14.0265l1.4724-1.4424a1.5212 1.5212 0 012.1544 0l2.7543 2.726a1.5143 1.5143 0 01.0058 2.1338s-1.5056 1.4822-1.871 1.8481c-1.3034 1.309.468 5.6362 2.2355 7.4061a9.545 9.545 0 004.1564 2.3724c.9106.2495 2.5423.5636 3.2409-.135.3634-.3639 1.8388-1.8666 1.8388-1.8666a1.5128 1.5128 0 012.1368 0l2.7543 2.7589a1.5261 1.5261 0 01-.0001 2.1572z" fill="#0F0F0F"/></svg>
